svg/aws-cloudfront.svg

<?xml version="1.0" encoding="UTF-8"?>
<svg xmlns="http://www.w3.org/2000/svg" xmlns:xlink="http://www.w3.org/1999/xlink" width="32" height="32" viewBox="0 0 32 32">
<path fill-rule="nonzero" fill="rgb(54.901963%, 30.980393%, 100%)" fill-opacity="1" d="M 0.203125 0.203125 L 31.796875 0.203125 L 31.796875 31.796875 L 0.203125 31.796875 Z M 0.203125 0.203125 "/>
<path fill-rule="nonzero" fill="rgb(100%, 100%, 100%)" fill-opacity="1" d="M 22.824219 21.472656 C 22.789062 20.75 22.195312 20.179688 21.472656 20.179688 C 20.746094 20.179688 20.152344 20.75 20.117188 21.472656 C 20.132812 22.207031 20.734375 22.792969 21.46875 22.792969 C 22.207031 22.796875 22.808594 22.210938 22.824219 21.472656 M 23.730469 21.472656 C 23.726562 22.71875 22.71875 23.726562 21.472656 23.730469 C 20.226562 23.726562 19.21875 22.71875 19.214844 21.472656 C 19.21875 20.226562 20.226562 19.21875 21.472656 19.214844 C 22.71875 19.21875 23.726562 20.226562 23.730469 21.472656 M 11.660156 14.960938 C 11.660156 14.214844 11.054688 13.605469 10.308594 13.605469 C 9.5625 13.605469 8.957031 14.214844 8.957031 14.960938 C 8.957031 15.703125 9.5625 16.3125 10.308594 16.3125 C 11.054688 16.3125 11.660156 15.703125 11.660156 14.960938 M 12.566406 14.960938 C 12.5625 16.203125 11.554688 17.210938 10.308594 17.214844 C 9.0625 17.214844 8.054688 16.207031 8.050781 14.960938 C 8.050781 13.714844 9.0625 12.703125 10.308594 12.703125 C 11.554688 12.703125 12.5625 13.714844 12.566406 14.960938 M 15.878906 7.878906 C 15.878906 8.625 16.484375 9.230469 17.230469 9.230469 C 17.980469 9.230469 18.585938 8.625 18.585938 7.878906 C 18.585938 7.128906 17.980469 6.523438 17.230469 6.523438 C 16.484375 6.523438 15.878906 7.128906 15.878906 7.878906 M 14.976562 7.878906 C 14.976562 6.632812 15.984375 5.625 17.230469 5.621094 C 18.476562 5.621094 19.484375 6.632812 19.488281 7.878906 C 19.484375 9.125 18.476562 10.132812 17.230469 10.132812 C 15.984375 10.128906 14.976562 9.121094 14.976562 7.878906 M 27.734375 16 C 27.734375 11.816406 25.492188 7.941406 21.875 5.847656 C 21.226562 5.980469 20.597656 6.15625 19.816406 6.441406 L 19.507812 5.59375 C 19.878906 5.457031 20.253906 5.335938 20.632812 5.226562 C 18.46875 4.285156 16.070312 4.027344 13.757812 4.488281 C 14.285156 4.796875 14.757812 5.109375 15.214844 5.453125 L 14.667969 6.171875 C 14.023438 5.683594 13.355469 5.269531 12.480469 4.8125 C 8.050781 6.210938 4.863281 10.085938 4.347656 14.703125 C 5.273438 14.515625 6.214844 14.410156 7.160156 14.386719 L 7.183594 15.292969 C 6.144531 15.316406 5.253906 15.425781 4.277344 15.640625 C 4.273438 15.761719 4.265625 15.882812 4.265625 16 C 4.261719 19.875 6.175781 23.5 9.378906 25.679688 C 8.808594 23.996094 8.53125 22.402344 8.53125 20.847656 C 8.53125 19.964844 8.683594 19.238281 8.84375 18.46875 C 8.882812 18.289062 8.917969 18.105469 8.957031 17.914062 L 9.84375 18.089844 C 9.800781 18.285156 9.765625 18.472656 9.726562 18.648438 C 9.566406 19.40625 9.433594 20.058594 9.433594 20.847656 C 9.433594 22.613281 9.820312 24.4375 10.609375 26.417969 C 12.273438 27.285156 14.121094 27.738281 16 27.734375 C 17.230469 27.734375 18.449219 27.539062 19.617188 27.15625 C 20.058594 26.285156 20.417969 25.378906 20.691406 24.441406 L 21.558594 24.691406 C 21.363281 25.371094 21.121094 26.039062 20.832031 26.6875 C 21.5625 26.359375 22.25 25.953125 22.898438 25.484375 C 22.746094 25.097656 22.574219 24.71875 22.390625 24.347656 L 23.199219 23.949219 C 23.355469 24.257812 23.496094 24.578125 23.636719 24.902344 C 26.246094 22.683594 27.746094 19.425781 27.734375 16 M 28.636719 16 C 28.636719 19.9375 26.847656 23.582031 23.730469 25.996094 C 22.957031 26.59375 22.121094 27.097656 21.230469 27.496094 C 20.855469 27.664062 20.472656 27.824219 20.078125 27.957031 C 18.777344 28.410156 17.40625 28.636719 16 28.636719 C 13.921875 28.636719 11.859375 28.121094 10.039062 27.144531 C 5.921875 24.953125 3.355469 20.664062 3.363281 16 C 3.363281 15.691406 3.371094 15.453125 3.390625 15.238281 C 3.695312 9.964844 7.316406 5.398438 12.390625 3.886719 C 13.5625 3.535156 14.777344 3.359375 16 3.363281 C 22.976562 3.367188 28.632812 9.023438 28.636719 16 M 14.789062 9.4375 L 14.195312 8.757812 C 13.179688 9.640625 12.394531 10.582031 11.476562 11.992188 L 12.234375 12.488281 C 13.105469 11.144531 13.84375 10.265625 14.789062 9.4375 M 13.414062 15.292969 L 13.125 16.140625 C 15.195312 16.855469 17.003906 17.992188 18.816406 19.71875 L 19.4375 19.0625 C 17.53125 17.242188 15.613281 16.042969 13.414062 15.292969 M 19.449219 9.980469 C 21.144531 12.566406 22.101562 15.402344 22.285156 18.410156 L 21.382812 18.46875 C 21.203125 15.613281 20.300781 12.925781 18.699219 10.480469 Z M 19.449219 9.980469 "/>
</svg>

<svg role="img" viewBox="0 0 32 32" xmlns="http://www.w3.org/2000/svg"><path d="M.203.203h31.594v31.594H.203Zm0 0" fill="rgb(54.901963%, 30.980393%, 100%)"/><path d="M22.824 21.473a1.356 1.356 0 0 0-2.707 0 1.35 1.35 0 0 0 1.352 1.32 1.346 1.346 0 0 0 1.355-1.32m.906 0a2.264 2.264 0 0 1-2.257 2.257 2.264 2.264 0 0 1-2.258-2.257 2.264 2.264 0 0 1 2.258-2.258 2.264 2.264 0 0 1 2.257 2.258M11.66 14.96c0-.746-.605-1.356-1.351-1.356s-1.352.61-1.352 1.356c0 .742.605 1.351 1.352 1.351.746 0 1.351-.609 1.351-1.351m.906 0a2.258 2.258 0 0 1-4.516 0 2.26 2.26 0 0 1 2.259-2.258 2.26 2.26 0 0 1 2.257 2.258m3.313-7.082a1.353 1.353 0 1 0 2.708-.003 1.353 1.353 0 0 0-2.708.003m-.902 0A2.26 2.26 0 0 1 17.23 5.62a2.26 2.26 0 0 1 2.258 2.258 2.26 2.26 0 0 1-2.258 2.254 2.257 2.257 0 0 1-2.253-2.254M27.734 16c0-4.184-2.242-8.059-5.859-10.152-.648.132-1.277.308-2.059.593l-.308-.847q.556-.205 1.125-.367a11.57 11.57 0 0 0-6.875-.739c.527.309 1 .621 1.457.965l-.547.719c-.645-.488-1.313-.902-2.188-1.36a11.74 11.74 0 0 0-8.132 9.891 16 16 0 0 1 2.812-.316l.024.906c-1.04.023-1.93.133-2.907.348-.004.12-.011.242-.011.359a11.69 11.69 0 0 0 5.113 9.68c-.57-1.684-.848-3.278-.848-4.832 0-.883.153-1.61.313-2.38q.056-.268.113-.554l.887.176c-.043.195-.078.383-.117.558-.16.758-.293 1.41-.293 2.2 0 1.765.386 3.59 1.175 5.57A11.6 11.6 0 0 0 16 27.734c1.23 0 2.45-.195 3.617-.578q.664-1.306 1.074-2.715l.868.25q-.294 1.022-.727 1.997c.73-.329 1.418-.735 2.066-1.204a15 15 0 0 0-.507-1.136l.808-.399c.156.309.297.63.438.953A11.64 11.64 0 0 0 27.734 16m.903 0c0 3.938-1.79 7.582-4.907 9.996a12.3 12.3 0 0 1-2.5 1.5c-.375.168-.757.328-1.152.461-1.3.453-2.672.68-4.078.68-2.078 0-4.14-.516-5.96-1.492A12.6 12.6 0 0 1 3.362 16c0-.309.008-.547.028-.762.304-5.273 3.925-9.84 9-11.351A12.4 12.4 0 0 1 16 3.363c6.977.004 12.633 5.66 12.637 12.637M14.789 9.438l-.594-.68c-1.015.883-1.8 1.824-2.718 3.234l.757.496c.871-1.343 1.61-2.222 2.555-3.05m-1.375 5.855-.289.848c2.07.714 3.879 1.851 5.691 3.578l.622-.657c-1.907-1.82-3.825-3.019-6.024-3.769M19.45 9.98c1.696 2.586 2.653 5.422 2.836 8.43l-.902.059c-.18-2.856-1.082-5.543-2.684-7.989Zm0 0" fill="rgb(100%, 100%, 100%)"/></svg>
